svg/shoe_formal.svg

<svg xmlns="http://www.w3.org/2000/svg" viewBox="0 0 24 24"><path d="M21.5 9V8h-1l-1 1H15l-1-1h-1l-6 4H4a2 2 0 0 0-2 2v2h8l3-1h2v1h6.5v-2s.5-1 .5-2.5-.5-2.5-.5-2.5"/></svg>

<?xml version="1.0" encoding="UTF-8"?><!DOCTYPE svg PUBLIC "-//W3C//DTD SVG 1.1//EN" "http://www.w3.org/Graphics/SVG/1.1/DTD/svg11.dtd"><svg xmlns="http://www.w3.org/2000/svg" xmlns:xlink="http://www.w3.org/1999/xlink" version="1.1" id="mdi-shoe-formal" width="24" height="24" viewBox="0 0 24 24"><path d="M21.5,9V8H20.5L19.5,9H15L14,8H13L7,12H4A2,2 0 0,0 2,14V16H10L13,15H15V16H21.5V14C21.5,14 22,13 22,11.5C22,10 21.5,9 21.5,9Z" /></svg>
